X:1
T:French Club
M:6/8
L:1/8
K:G
"G"d2 Be2 B | dBG DGB | d2 B edB | "C"cdB c2 A |!
"D"DFA cBc | d^cd f2 e| |1"D" d^cd ed=c | "G"dBG "D"DGB:|]!
|2 ded cBA | "G" GBd g2 d|] "G"g2 d "D" fed | "C" =cde "G" d2 g | "D" faa def |!
"G" gbb def | g2 d "D(Bm)" fed | "C"cde "G" d2 g |"D" faa def |1"G"gdB GBd:|2 "G" gdB GAB|]!
